build/assets/images/main-way4.svg

<svg width="152" height="100" viewBox="0 0 152 100" fill="none" xmlns="http://www.w3.org/2000/svg">
<path d="M143.79 0H48.2505V62.6565H143.79V0Z" fill="#00458B"/>
<path d="M143.79 0H48.2505V62.6565H143.79V0Z" fill="url(#paint0_linear)"/>
<path fill-rule="evenodd" clip-rule="evenodd" d="M118.818 91.3945C136.78 91.3945 151.342 76.8329 151.342 58.8702C151.342 40.9075 136.78 26.3459 118.818 26.3459C100.855 26.3459 86.2935 40.9075 86.2935 58.8702C86.2935 76.8329 100.855 91.3945 118.818 91.3945ZM118.818 72.8591C126.544 72.8591 132.807 66.5961 132.807 58.8702C132.807 51.1443 126.544 44.8812 118.818 44.8812C111.092 44.8812 104.829 51.1443 104.829 58.8702C104.829 66.5961 111.092 72.8591 118.818 72.8591Z" fill="#BDC9D5"/>
<path fill-rule="evenodd" clip-rule="evenodd" d="M118.817 72.9757C126.608 72.9757 132.923 66.6604 132.923 58.8702C132.923 51.0799 126.608 44.7646 118.817 44.7646C111.027 44.7646 104.712 51.0799 104.712 58.8702C104.712 66.6604 111.027 72.9757 118.817 72.9757ZM118.817 64.9371C122.168 64.9371 124.884 62.2208 124.884 58.8702C124.884 55.5195 122.168 52.8033 118.817 52.8033C115.467 52.8033 112.751 55.5195 112.751 58.8702C112.751 62.2208 115.467 64.9371 118.817 64.9371Z" fill="#00458B"/>
<path d="M48.2498 12.3243H119.831V59.1033L47.6973 22.0676L48.2498 12.3243Z" fill="url(#paint1_linear)"/>
<path d="M121.44 43.1629V95.8033C121.44 96.9163 120.998 97.9838 120.211 98.7708C119.424 99.5578 118.357 100 117.244 100H4.19668C3.08365 100 2.01621 99.5578 1.22918 98.7708C0.442149 97.9838 0 96.9163 0 95.8033V29.5074C0 28.3943 0.442149 27.3269 1.22918 26.5398C2.01621 25.7528 3.08365 25.3107 4.19668 25.3107H33.8696C35.0701 25.3106 36.2265 25.7638 37.1074 26.5794C37.9883 27.3951 38.5289 28.5132 38.6211 29.7102L38.9219 33.6737C39.0324 35.1148 39.6828 36.4611 40.7432 37.4433C41.8036 38.4254 43.1957 38.971 44.6411 38.9709H117.251C118.238 38.9722 119.194 39.3218 119.949 39.958C120.704 40.5943 121.211 41.4765 121.38 42.4495C121.42 42.6852 121.44 42.9238 121.44 43.1629Z" fill="#00458B"/>
<path d="M121.44 43.1629V95.8033C121.44 96.9163 120.998 97.9838 120.211 98.7708C119.424 99.5578 118.357 100 117.244 100H4.19668C3.08365 100 2.01621 99.5578 1.22918 98.7708C0.442149 97.9838 0 96.9163 0 95.8033V29.5074C0 28.3943 0.442149 27.3269 1.22918 26.5398C2.01621 25.7528 3.08365 25.3107 4.19668 25.3107H33.8696C35.0701 25.3106 36.2265 25.7638 37.1074 26.5794C37.9883 27.3951 38.5289 28.5132 38.6211 29.7102L38.9219 33.6737C39.0324 35.1148 39.6828 36.4611 40.7432 37.4433C41.8036 38.4254 43.1957 38.971 44.6411 38.9709H117.251C118.238 38.9722 119.194 39.3218 119.949 39.958C120.704 40.5943 121.211 41.4765 121.38 42.4495C121.42 42.6852 121.44 42.9238 121.44 43.1629Z" fill="url(#paint2_linear)"/>
<path d="M46.2918 38.9709H44.6411C43.1958 38.971 41.8037 38.4254 40.7433 37.4433C39.6829 36.4611 39.0324 35.1148 38.922 33.6737L38.6212 29.7102C38.5983 29.3946 38.5436 29.0822 38.458 28.7776H40.7895C41.9902 28.777 43.1468 29.2299 44.0279 30.0457C44.9089 30.8615 45.4494 31.9799 45.5411 33.1771L45.8442 37.1406C45.8907 37.7713 46.042 38.3899 46.2918 38.9709Z" fill="#222A72"/>
<path d="M121.44 43.1629V95.8033C121.44 96.9163 120.998 97.9838 120.211 98.7708C119.424 99.5578 118.357 100 117.244 100H6.99226C6.95232 99.765 6.93204 99.5272 6.93164 99.2889V32.9743C6.93164 31.8612 7.37379 30.7938 8.16082 30.0068C8.94785 29.2197 10.0153 28.7776 11.1283 28.7776H38.4581C38.5437 29.0822 38.5983 29.3946 38.6213 29.7102L38.922 33.6737C39.0325 35.1148 39.683 36.4611 40.7434 37.4433C41.8037 38.4254 43.1958 38.971 44.6412 38.9709H46.2919C46.7346 40.0028 47.4701 40.8823 48.4074 41.5006C49.3448 42.1189 50.4428 42.4488 51.5657 42.4495H121.38C121.42 42.6852 121.44 42.9238 121.44 43.1629Z" fill="#00458B"/>
<path d="M121.44 41.4259V94.0593C121.44 95.1724 120.998 96.2398 120.211 97.0268C119.424 97.8139 118.357 98.256 117.244 98.256H6.99226C6.95232 98.0211 6.93204 97.7832 6.93164 97.5449V31.242C6.93164 30.1289 7.37379 29.0615 8.16082 28.2745C8.94785 27.4874 10.0153 27.0453 11.1283 27.0453H38.4581C38.5425 27.3502 38.5971 27.6625 38.6213 27.9779L38.922 31.9414C39.0325 33.3828 39.6829 34.7293 40.7432 35.7118C41.8035 36.6943 43.1956 37.2404 44.6412 37.2409H46.2919C46.7346 38.2728 47.4701 39.1524 48.4074 39.7706C49.3448 40.3889 50.4428 40.7188 51.5657 40.7195H121.38C121.42 40.9528 121.44 41.1892 121.44 41.4259Z" fill="url(#paint3_linear)"/>
<path d="M36.166 67.0693V64.0016H42.2042V82.3017H39.344V67.0693H36.166Z" fill="#E31E27"/>
<path d="M39.344 62.7323V59.4531H46.4415V82.3017H43.5813V62.7323H39.344Z" fill="#E31E27"/>
<path d="M87.2256 77.4358V74.4739H60.5041C58.5588 74.4739 56.9818 72.8859 56.9818 70.9434C56.9818 69.0155 58.5469 67.4395 60.4776 67.4395C62.4083 67.4395 63.9734 69.0024 63.9734 70.9303H66.9925C66.9925 67.425 64.1468 64.5305 60.6365 64.5305H60.4246C56.9143 64.5305 54.0687 67.3721 54.0687 70.8774V71.0889C54.0687 74.5942 56.9143 77.4358 60.4246 77.4358H87.2256Z" fill="#E31E27"/>
<path d="M87.2257 82.3017V79.1733H60.5038C55.992 79.1733 52.3345 75.5211 52.3345 71.0158C52.3345 66.4898 56.05 62.8292 60.5824 62.8586C65.0427 62.8875 68.6839 66.4766 68.7404 70.9303H71.7891C71.733 64.7758 66.7356 59.7471 60.5721 59.718C54.327 59.6886 49.2487 64.7547 49.2487 70.9909C49.2487 77.2272 54.3115 82.3017 60.5568 82.3017H87.2257Z" fill="#E31E27"/>
<path d="M115.56 13.7931V38.9732H44.641C43.1954 38.9727 41.8033 38.4266 40.743 37.4441C39.6827 36.4616 39.0323 35.115 38.9218 33.6737L38.6211 29.7102C38.5294 28.513 37.9889 27.3946 37.1079 26.5788C36.2269 25.763 35.0702 25.3101 33.8695 25.3107H13.4526V13.7931H115.56Z" fill="#68E1FD"/>
<path d="M115.56 13.7931V38.9732H44.641C43.1954 38.9727 41.8033 38.4266 40.743 37.4441C39.6827 36.4616 39.0323 35.115 38.9218 33.6737L38.6211 29.7102C38.5294 28.513 37.9889 27.3946 37.1079 26.5788C36.2269 25.763 35.0702 25.3101 33.8695 25.3107H13.4526V13.7931H115.56Z" fill="url(#paint4_linear)"/>
<path d="M47.7562 22.8929V38.9802H46.292V22.8929C46.2917 22.7971 46.3103 22.7021 46.3467 22.6134C46.383 22.5248 46.4365 22.4442 46.5041 22.3762C46.5716 22.3082 46.6519 22.2542 46.7403 22.2172C46.8288 22.1803 46.9236 22.1611 47.0194 22.1608C47.1146 22.1599 47.2091 22.1777 47.2974 22.2133C47.3858 22.2489 47.4662 22.3015 47.5342 22.3682C47.6022 22.4349 47.6564 22.5143 47.6937 22.6019C47.7309 22.6896 47.7506 22.7837 47.7515 22.8789L47.7562 22.8929Z" fill="url(#paint5_linear)"/>
<path opacity="0.42" d="M54.8182 22.8929V38.9802H53.354V22.8929C53.354 22.6988 53.4311 22.5125 53.5684 22.3753C53.7057 22.238 53.8919 22.1608 54.0861 22.1608C54.2803 22.1608 54.4665 22.238 54.6038 22.3753C54.7411 22.5125 54.8182 22.6988 54.8182 22.8929Z" fill="#00458B"/>
<path opacity="0.42" d="M61.8801 22.8929V38.9802H60.4136V22.8929C60.4136 22.6988 60.4907 22.5125 60.628 22.3753C60.7653 22.238 60.9515 22.1608 61.1457 22.1608C61.3398 22.1608 61.526 22.238 61.6633 22.3753C61.8006 22.5125 61.8778 22.6988 61.8778 22.8929H61.8801Z" fill="#00458B"/>
<path opacity="0.42" d="M68.9417 22.8929V38.9802H67.4775V22.8929C67.4772 22.7971 67.4958 22.7021 67.5322 22.6135C67.5686 22.5248 67.6221 22.4442 67.6896 22.3762C67.7572 22.3082 67.8375 22.2542 67.9259 22.2173C68.0143 22.1803 68.1091 22.1611 68.205 22.1608C68.3992 22.1616 68.5856 22.2377 68.7249 22.373C68.8632 22.5107 68.9412 22.6977 68.9417 22.8929Z" fill="#00458B"/>
<path opacity="0.42" d="M76.0042 22.8929V38.9802H74.54V22.8929C74.54 22.6988 74.6172 22.5125 74.7545 22.3753C74.8918 22.238 75.078 22.1608 75.2721 22.1608C75.4663 22.1608 75.6525 22.238 75.7898 22.3753C75.9271 22.5125 76.0042 22.6988 76.0042 22.8929Z" fill="#00458B"/>
<path opacity="0.42" d="M83.0662 22.8929V38.9802H81.6021V22.8929C81.6015 22.797 81.6198 22.7019 81.6561 22.6131C81.6924 22.5243 81.7459 22.4436 81.8135 22.3755C81.8811 22.3075 81.9615 22.2535 82.05 22.2166C82.1386 22.1798 82.2336 22.1608 82.3295 22.1608C82.5237 22.1616 82.7101 22.2377 82.8494 22.373C82.9181 22.441 82.9726 22.522 83.0098 22.6113C83.0471 22.7005 83.0662 22.7962 83.0662 22.8929Z" fill="#00458B"/>
<path opacity="0.42" d="M90.1282 22.8929V38.9802H88.6641V22.8929C88.6641 22.6988 88.7412 22.5125 88.8785 22.3753C89.0158 22.238 89.202 22.1608 89.3961 22.1608C89.5903 22.1608 89.7765 22.238 89.9138 22.3753C90.0511 22.5125 90.1282 22.6988 90.1282 22.8929Z" fill="#00458B"/>
<path opacity="0.42" d="M97.1907 22.8929V38.9802H95.7266V22.8929C95.7266 22.7968 95.7455 22.7016 95.7823 22.6128C95.8191 22.5239 95.873 22.4432 95.941 22.3752C96.009 22.3073 96.0897 22.2533 96.1785 22.2166C96.2673 22.1798 96.3625 22.1608 96.4587 22.1608C96.5548 22.1608 96.65 22.1798 96.7388 22.2166C96.8276 22.2533 96.9083 22.3073 96.9763 22.3752C97.0443 22.4432 97.0982 22.5239 97.135 22.6128C97.1718 22.7016 97.1907 22.7968 97.1907 22.8929Z" fill="#00458B"/>
<defs>
<linearGradient id="paint0_linear" x1="79.0168" y1="56.492" x2="159.985" y2="-63.3326" gradientUnits="userSpaceOnUse">
<stop offset="0.03" stop-color="white"/>
<stop offset="0.09" stop-color="white" stop-opacity="0.84"/>
<stop offset="0.18" stop-color="white" stop-opacity="0.64"/>
<stop offset="0.28" stop-color="white" stop-opacity="0.47"/>
<stop offset="0.37" stop-color="white" stop-opacity="0.33"/>
<stop offset="0.47" stop-color="white" stop-opacity="0.21"/>
<stop offset="0.58" stop-color="white" stop-opacity="0.12"/>
<stop offset="0.69" stop-color="white" stop-opacity="0.05"/>
<stop offset="0.82" stop-color="white" stop-opacity="0.01"/>
<stop offset="0.98" stop-color="white" stop-opacity="0"/>
</linearGradient>
<linearGradient id="paint1_linear" x1="147.802" y1="-52.8362" x2="58.9537" y2="79.4876" gradientUnits="userSpaceOnUse">
<stop offset="0.01"/>
<stop offset="0.1" stop-opacity="0.77"/>
<stop offset="0.97" stop-opacity="0"/>
</linearGradient>
<linearGradient id="paint2_linear" x1="83990.6" y1="35057.3" x2="-21214.1" y2="38965.5" gradientUnits="userSpaceOnUse">
<stop offset="0.01"/>
<stop offset="0.1" stop-opacity="0.77"/>
<stop offset="0.97" stop-opacity="0"/>
</linearGradient>
<linearGradient id="paint3_linear" x1="49517.1" y1="-1706.46" x2="41063.8" y2="-34188.4" gradientUnits="userSpaceOnUse">
<stop offset="0.01"/>
<stop offset="0.1" stop-opacity="0.77"/>
<stop offset="0.97" stop-opacity="0"/>
</linearGradient>
<linearGradient id="paint4_linear" x1="34056.1" y1="5466.03" x2="34012.7" y2="11984.8" gradientUnits="userSpaceOnUse">
<stop offset="0.03" stop-color="white"/>
<stop offset="0.09" stop-color="white" stop-opacity="0.84"/>
<stop offset="0.18" stop-color="white" stop-opacity="0.64"/>
<stop offset="0.28" stop-color="white" stop-opacity="0.47"/>
<stop offset="0.37" stop-color="white" stop-opacity="0.33"/>
<stop offset="0.47" stop-color="white" stop-opacity="0.21"/>
<stop offset="0.58" stop-color="white" stop-opacity="0.12"/>
<stop offset="0.69" stop-color="white" stop-opacity="0.05"/>
<stop offset="0.82" stop-color="white" stop-opacity="0.01"/>
<stop offset="0.98" stop-color="white" stop-opacity="0"/>
</linearGradient>
<linearGradient id="paint5_linear" x1="57.0075" y1="29.8571" x2="41.4168" y2="31.0111" gradientUnits="userSpaceOnUse">
<stop offset="0.01" stop-color="white"/>
<stop offset="0.97" stop-color="white" stop-opacity="0"/>
</linearGradient>
</defs>
</svg>

<svg width="152" height="100" fill="none" xmlns="http://www.w3.org/2000/svg"><path d="M143.79 0H48.25v62.657h95.54V0z" fill="#00458B"/><path d="M143.79 0H48.25v62.657h95.54V0z" fill="url(#paint0_linear)"/><path fill-rule="evenodd" clip-rule="evenodd" d="M118.818 91.394c17.962 0 32.524-14.561 32.524-32.524 0-17.962-14.562-32.524-32.524-32.524-17.963 0-32.525 14.561-32.525 32.524s14.562 32.524 32.525 32.524zm0-18.535c7.726 0 13.989-6.263 13.989-13.989 0-7.726-6.263-13.989-13.989-13.989-7.726 0-13.989 6.263-13.989 13.99 0 7.725 6.263 13.988 13.989 13.988z" fill="#BDC9D5"/><path fill-rule="evenodd" clip-rule="evenodd" d="M118.817 72.976c7.791 0 14.106-6.316 14.106-14.106s-6.315-14.105-14.106-14.105c-7.79 0-14.105 6.315-14.105 14.105s6.315 14.106 14.105 14.106zm0-8.039a6.067 6.067 0 100-12.134 6.067 6.067 0 000 12.134z" fill="#00458B"/><path d="M48.25 12.324h71.581v46.78L47.697 22.067l.553-9.744z" fill="url(#paint1_linear)"/><path d="M121.44 43.163v52.64a4.197 4.197 0 01-4.196 4.197H4.197A4.197 4.197 0 010 95.803V29.507a4.197 4.197 0 014.197-4.196H33.87a4.765 4.765 0 014.751 4.4l.3 3.963a5.736 5.736 0 005.72 5.297h72.61a4.197 4.197 0 014.189 4.192z" fill="#00458B"/><path d="M121.44 43.163v52.64a4.197 4.197 0 01-4.196 4.197H4.197A4.197 4.197 0 010 95.803V29.507a4.197 4.197 0 014.197-4.196H33.87a4.765 4.765 0 014.751 4.4l.3 3.963a5.736 5.736 0 005.72 5.297h72.61a4.197 4.197 0 014.189 4.192z" fill="url(#paint2_linear)"/><path d="M46.292 38.97h-1.65a5.736 5.736 0 01-5.72-5.296l-.3-3.964a4.706 4.706 0 00-.164-.932h2.331a4.763 4.763 0 014.752 4.4l.303 3.963c.047.63.198 1.249.448 1.83z" fill="#222A72"/><path d="M121.44 43.163v52.64a4.197 4.197 0 01-4.196 4.197H6.992a4.286 4.286 0 01-.06-.711V32.974a4.197 4.197 0 014.196-4.196h27.33c.086.304.14.617.163.932l.301 3.964a5.736 5.736 0 005.72 5.297h1.65a5.743 5.743 0 005.274 3.479h69.814c.04.235.06.474.06.713z" fill="#00458B"/><path d="M121.44 41.426v52.633a4.196 4.196 0 01-4.196 4.197H6.992a4.286 4.286 0 01-.06-.711V31.242a4.197 4.197 0 014.196-4.197h27.33c.084.305.14.617.163.933l.301 3.963a5.738 5.738 0 005.72 5.3h1.65a5.743 5.743 0 005.274 3.478h69.814c.04.234.06.47.06.707z" fill="url(#paint3_linear)"/><path d="M36.166 67.07v-3.068h6.038v18.3h-2.86V67.069h-3.178z" fill="#E31E27"/><path d="M39.344 62.732v-3.279h7.097v22.849h-2.86v-19.57h-4.237zm47.882 14.704v-2.962H60.504a3.531 3.531 0 01-3.522-3.53 3.504 3.504 0 013.496-3.505 3.493 3.493 0 013.495 3.491h3.02c0-3.505-2.846-6.4-6.356-6.4h-.212a6.351 6.351 0 00-6.356 6.347v.212a6.351 6.351 0 006.356 6.347h26.8z" fill="#E31E27"/><path d="M87.226 82.302v-3.129H60.504c-4.512 0-8.17-3.652-8.17-8.157 0-4.526 3.716-8.187 8.248-8.157 4.46.029 8.102 3.618 8.158 8.071h3.05c-.057-6.154-5.054-11.183-11.218-11.212-6.245-.03-11.323 5.037-11.323 11.273S54.312 82.3 60.557 82.3h26.669z" fill="#E31E27"/><path d="M115.56 13.793v25.18H44.641a5.738 5.738 0 01-5.72-5.3l-.3-3.963a4.764 4.764 0 00-4.752-4.4H13.454V13.794H115.56z" fill="#68E1FD"/><path d="M115.56 13.793v25.18H44.641a5.738 5.738 0 01-5.72-5.3l-.3-3.963a4.764 4.764 0 00-4.752-4.4H13.454V13.794H115.56z" fill="url(#paint4_linear)"/><path d="M47.756 22.893V38.98h-1.464V22.893a.73.73 0 011.46-.014l.004.014z" fill="url(#paint5_linear)"/><path opacity=".42" d="M54.818 22.893V38.98h-1.464V22.893a.732.732 0 111.464 0zm7.062 0V38.98h-1.466V22.893a.732.732 0 111.464 0h.002zm7.062 0V38.98h-1.464V22.893a.73.73 0 01.727-.732.75.75 0 01.52.212.736.736 0 01.217.52zm7.062 0V38.98H74.54V22.893a.732.732 0 011.464 0zm7.062 0V38.98h-1.464V22.893a.727.727 0 01.727-.732.73.73 0 01.737.732zm7.062 0V38.98h-1.464V22.893a.732.732 0 111.464 0zm7.062 0V38.98h-1.463V22.893a.732.732 0 111.464 0z" fill="#00458B"/><defs><linearGradient id="paint0_linear" x1="79.017" y1="56.492" x2="159.985" y2="-63.333" gradientUnits="userSpaceOnUse"><stop offset=".03" stop-color="#fff"/><stop offset=".09" stop-color="#fff" stop-opacity=".84"/><stop offset=".18" stop-color="#fff" stop-opacity=".64"/><stop offset=".28" stop-color="#fff" stop-opacity=".47"/><stop offset=".37" stop-color="#fff" stop-opacity=".33"/><stop offset=".47" stop-color="#fff" stop-opacity=".21"/><stop offset=".58" stop-color="#fff" stop-opacity=".12"/><stop offset=".69" stop-color="#fff" stop-opacity=".05"/><stop offset=".82" stop-color="#fff" stop-opacity=".01"/><stop offset=".98" stop-color="#fff" stop-opacity="0"/></linearGradient><linearGradient id="paint1_linear" x1="147.802" y1="-52.836" x2="58.954" y2="79.488" gradientUnits="userSpaceOnUse"><stop offset=".01"/><stop offset=".1" stop-opacity=".77"/><stop offset=".97" stop-opacity="0"/></linearGradient><linearGradient id="paint2_linear" x1="83990.6" y1="35057.3" x2="-21214.1" y2="38965.5" gradientUnits="userSpaceOnUse"><stop offset=".01"/><stop offset=".1" stop-opacity=".77"/><stop offset=".97" stop-opacity="0"/></linearGradient><linearGradient id="paint3_linear" x1="49517.1" y1="-1706.46" x2="41063.8" y2="-34188.4" gradientUnits="userSpaceOnUse"><stop offset=".01"/><stop offset=".1" stop-opacity=".77"/><stop offset=".97" stop-opacity="0"/></linearGradient><linearGradient id="paint4_linear" x1="34056.1" y1="5466.03" x2="34012.7" y2="11984.8" gradientUnits="userSpaceOnUse"><stop offset=".03" stop-color="#fff"/><stop offset=".09" stop-color="#fff" stop-opacity=".84"/><stop offset=".18" stop-color="#fff" stop-opacity=".64"/><stop offset=".28" stop-color="#fff" stop-opacity=".47"/><stop offset=".37" stop-color="#fff" stop-opacity=".33"/><stop offset=".47" stop-color="#fff" stop-opacity=".21"/><stop offset=".58" stop-color="#fff" stop-opacity=".12"/><stop offset=".69" stop-color="#fff" stop-opacity=".05"/><stop offset=".82" stop-color="#fff" stop-opacity=".01"/><stop offset=".98" stop-color="#fff" stop-opacity="0"/></linearGradient><linearGradient id="paint5_linear" x1="57.008" y1="29.857" x2="41.417" y2="31.011" gradientUnits="userSpaceOnUse"><stop offset=".01" stop-color="#fff"/><stop offset=".97" stop-color="#fff" stop-opacity="0"/></linearGradient></defs></svg>
